icons/bitcoin.svg

<svg xmlns="http://www.w3.org/2000/svg" viewBox="0 0 24 24"><path fill="#ffa000" d="M14.24 10.56c-.31 1.24-2.24.61-2.84.44l.55-2.18c.62.18 2.61.44 2.29 1.74m-3.11 1.56-.6 2.41c.74.19 3.03.92 3.37-.44.36-1.42-2.03-1.79-2.77-1.97m10.57 2.3c-1.34 5.36-6.76 8.62-12.12 7.28S.963 14.94 2.3 9.58A9.996 9.996 0 0 1 14.42 2.3c5.35 1.34 8.61 6.76 7.28 12.12m-7.49-6.37.45-1.8-1.1-.25-.44 1.73c-.29-.07-.58-.14-.88-.2l.44-1.77-1.09-.26-.45 1.79c-.24-.06-.48-.11-.7-.17l-1.51-.38-.3 1.17s.82.19.8.2c.45.11.53.39.51.64l-1.23 4.93c-.05.14-.21.32-.5.27.01.01-.8-.2-.8-.2L6.87 15l1.42.36c.27.07.53.14.79.2l-.46 1.82 1.1.28.45-1.81c.3.08.59.15.87.23l-.45 1.79 1.1.28.46-1.82c1.85.35 3.27.21 3.85-1.48.5-1.35 0-2.15-1-2.66.72-.19 1.26-.64 1.41-1.62.2-1.33-.82-2.04-2.2-2.52" data-iconColor="Bitcoin"/></svg>

<!--
  - The MIT License (MIT)
  -
  - Copyright (c) 2015-2024 Elior "Mallowigi" Boukhobza
  -
  - Permission is hereby granted, free of charge, to any person obtaining a copy
  - of this software and associated documentation files (the "Software"), to deal
  - in the Software without restriction, including without limitation the rights
  - to use, copy, modify, merge, publish, distribute, sublicense, and/or sell
  - copies of the Software, and to permit persons to whom the Software is
  - furnished to do so, subject to the following conditions:
  -
  - The above copyright notice and this permission notice shall be included in all
  - copies or substantial portions of the Software.
  -
  - THE SOFTWARE IS PROVIDED "AS IS", WITHOUT WARRANTY OF ANY KIND, EXPRESS OR
  - IMPLIED, INCLUDING BUT NOT LIMITED TO THE WARRANTIES OF MERCHANTABILITY,
  - FITNESS FOR A PARTICULAR PURPOSE AND NONINFRINGEMENT. IN NO EVENT SHALL THE
  - AUTHORS OR COPYRIGHT HOLDERS BE LIABLE FOR ANY CLAIM, DAMAGES OR OTHER
  - LIABILITY, WHETHER IN AN ACTION OF CONTRACT, TORT OR OTHERWISE, ARISING FROM,
  - OUT OF OR IN CONNECTION WITH THE SOFTWARE OR THE USE OR OTHER DEALINGS IN THE
  - SOFTWARE.
  -
  -->

<svg xmlns="http://www.w3.org/2000/svg" version="1.1" width="16px" height="16px" viewBox="0 0 24 24">
  <path fill="#FFA000" data-iconColor="Bitcoin"
        d="M14.24 10.56C13.93 11.8 12 11.17 11.4 11L11.95 8.82C12.57 9 14.56 9.26 14.24 10.56M11.13 12.12L10.53 14.53C11.27 14.72 13.56 15.45 13.9 14.09C14.26 12.67 11.87 12.3 11.13 12.12M21.7 14.42C20.36 19.78 14.94 23.04 9.58 21.7C4.22 20.36 .963 14.94 2.3 9.58C3.64 4.22 9.06 .964 14.42 2.3C19.77 3.64 23.03 9.06 21.7 14.42M14.21 8.05L14.66 6.25L13.56 6L13.12 7.73C12.83 7.66 12.54 7.59 12.24 7.53L12.68 5.76L11.59 5.5L11.14 7.29C10.9 7.23 10.66 7.18 10.44 7.12L10.44 7.12L8.93 6.74L8.63 7.91C8.63 7.91 9.45 8.1 9.43 8.11C9.88 8.22 9.96 8.5 9.94 8.75L8.71 13.68C8.66 13.82 8.5 14 8.21 13.95C8.22 13.96 7.41 13.75 7.41 13.75L6.87 15L8.29 15.36C8.56 15.43 8.82 15.5 9.08 15.56L8.62 17.38L9.72 17.66L10.17 15.85C10.47 15.93 10.76 16 11.04 16.08L10.59 17.87L11.69 18.15L12.15 16.33C14 16.68 15.42 16.54 16 14.85C16.5 13.5 16 12.7 15 12.19C15.72 12 16.26 11.55 16.41 10.57C16.61 9.24 15.59 8.53 14.21 8.05Z"/>
</svg>
